X:1
T: Clark's Hornpipe
C:
R:Reel
Q: 232
K:D
M:4/4
L:1/8
|:((3ABc)|d2 AG FD FA|BG Bd cB ce|fd ge af ed|c2 e2 eg fe|
d2 AG FD FA|BG Bd cB ce|db ag fg ec|d2 f2 d2:|
|:((3efg)|a2 fd Ad fa|g2 ec Ac eg|fa fd Bg ed|ce dB Ag fe|
d2 AG FD FA|BG Bd cB ce|db ag fg ec|d2 f2 d2:|
